svg/500/outlined/ac_unit-fill.svg

<svg xmlns="http://www.w3.org/2000/svg" width="48" height="48" viewBox="0 -960 960 960"><path d="M447.37-77.37v-190.934L301-122.174 254.174-168 447.37-361.196v-86.174h-86.174L172-258.174 124.174-303l144.13-144.37H77.37v-65.26h190.934L121.174-660 168-706.826 361.196-512.63h86.174v-87.413L258.174-789 304-836.826l143.37 144.13V-882.63h65.26v189.934L660-839.826 705.826-793 512.63-600.043v87.413h87.413L790-702.826 836.826-657l-144.13 144.37H882.63v65.26H692.696L837.826-301 793-254.174 600.043-447.37H512.63v86.174L705.826-167 661-120.174l-148.37-148.13V-77.37h-65.26Z"/></svg>

<svg xmlns="http://www.w3.org/2000/svg" width="48" height="48" viewBox="0 -960 960 960"><path d="M447.37-77.37V-268.3L301-122.17 254.17-168l193.2-193.2v-86.17H361.2L172-258.17 124.17-303 268.3-447.37H77.37v-65.26H268.3L121.17-660 168-706.83l193.2 194.2h86.17v-87.41L258.17-789 304-836.83 447.37-692.7v-189.93h65.26v189.93L660-839.83 705.83-793l-193.2 192.96v87.41h87.41L790-702.83 836.83-657 692.7-512.63h189.93v65.26H692.7L837.83-301 793-254.17l-192.96-193.2h-87.41v86.17L705.83-167 661-120.17 512.63-268.3v190.93h-65.26Z"/></svg>
